src/qt/res/icons/eye_plus.svg

<svg version="1.1" viewBox="0 0 256 256" xmlns="http://www.w3.org/2000/svg">
 <title>eye_plus</title>
 <path d="m243.67 125.77c-15.93-23.8-35.35-44-60.56-58.06-33.89-18.85-68.77-20.61-104-3.95-29.11 13.8-50.82 36.09-68.6 62.56-1.47 2.2-1 3.84 0.3 5.84 12.64 19 27.79 35.6 46.3 49.05 21 15.24 44.18 24.1 71.28 24.47a112.24 112.24 0 0 0 45.61-10.63c29.79-14.06 52.12-36.38 70.17-63.45 1.49-2.29 0.83-3.91-0.5-5.83zm-67.29 14.32c-1.65 3.06-3.92 4.95-6.44 4.95h-25.75v25.74c0 5-7.56 9.11-16.9 9.11-6.71 0-12.51-2.11-15.23-5.16a5.94 5.94 0 0 1-1.67-3.95v-25.78h-25.73c-5 0-9.12-7.56-9.12-16.9s4.08-16.9 9.11-16.9h25.74v-25.7c0-5 7.57-9.11 16.9-9.11a25.71 25.71 0 0 1 12 2.67c3.06 1.65 4.95 3.92 4.95 6.44v25.74h25.75c5 0 9.11 7.57 9.11 16.9a25.68 25.68 0 0 1-2.72 11.95z"/>
</svg>

<svg id="Layer_1" data-name="Layer 1" xmlns="http://www.w3.org/2000/svg" viewBox="0 0 256 256"><title>eye_plus</title><path d="M243.67,125.77c-15.93-23.8-35.35-44-60.56-58.06-33.89-18.85-68.77-20.61-104-3.95C50,77.56,28.29,99.85,10.51,126.32c-1.47,2.2-1,3.84.3,5.84,12.64,19,27.79,35.6,46.3,49.05,21,15.24,44.18,24.1,71.28,24.47A112.24,112.24,0,0,0,174,195.05c29.79-14.06,52.12-36.38,70.17-63.45C245.66,129.31,245,127.69,243.67,125.77Zm-67.29,14.32c-1.65,3.06-3.92,4.95-6.44,4.95H144.19v25.74c0,5-7.56,9.11-16.9,9.11-6.71,0-12.51-2.11-15.23-5.16a5.94,5.94,0,0,1-1.67-3.95V145H84.66c-5,0-9.12-7.56-9.12-16.9s4.08-16.9,9.11-16.9h25.74V85.5c0-5,7.57-9.11,16.9-9.11a25.71,25.71,0,0,1,12,2.67c3.06,1.65,4.95,3.92,4.95,6.44v25.74h25.75c5,0,9.11,7.57,9.11,16.9A25.68,25.68,0,0,1,176.38,140.09Z"/></svg>
